X:1
T:Aura gentil che mormorando
T:Girolamo Scotto
T:Source : Madrigali a tre voci---Venetia---G.Scotto---1541. Editor: André Vierendeels (16/08/16).
T:Notes : Original clefs : C1, C3, C4 Editorial accidentals above the staff Original note values have been halved Text by Luigi Alamanni (Sonetto LXX) "Septimi toni"
T:Aura gentil che mormorando
T:©
T:©
T:©
T:©
T:©
T:©
C:Girolamo Scotto
Z:©
%%score [ 1 [ 2 3 ] ]
L:1/8
Q:1/4=124
M:2/2
K:C
V:1 treble nm="Soprano" snm="S"
V:2 treble-8 nm="Tenor 1" snm="T 1"
V:3 treble-8 nm="Tenor 2" snm="T 2"
V:1
 z8 | z8 | G4 A2 A2 | G2 G2 c4- | c2 BA B2 c2- | cBAG A2 G2- | GF/E/ F2 G4 | z8 | z2 G2 G2 G2 | %9
w: ||Au- ra gen-|til che mor-|* mo- * ran- *|* * * * do vie-|* * * * ni,||a tem- prar-|
 A2 A2 G2 G2 | c6 BA | B2 A4 G2 | F3 E D2 G2- |"^#" G2 F2 G3 F | E2 D2 C2 F2 | E2 G3 FED | %16
w: ne'il ca- lor del|lon- * *|go gior- *||* * no, et|l'aer va- go ri-|mo- ven- * * *|
 C3 D EF G2- | GA B2 c2 A2- | A2 c4 B2 | c2 G2 A3 G | F2 EF D2 DD | EFGE FD G2- | G2 F4 E2 | %23
w: |* * * * do'in-|* tor- *|no, lie- ta- men-|te rin- * fre- schi et|ras- * * * se- * re-||
 F2 D2 E2 G2- | G2 F2 GFED | ED D3 EFG | AB c3 B A2- | A2 G2 A4- | A4 z2 G2 | G2 G2 A2 B2 | %30
w: ni, et ras- se-|* * re- * * *|||* * ni,|_ ch'io|sol non sen- ta'il|
 c4 B4- | B2 B2 B4 | A3 G AB c2- | c2 B2 cBAG | A2 G2 F2 E2 | D4 C4 | C2 F2 E4 | D2 A4 G2 | %38
w: dol- ce|_ tu- o|ri- * * * tor-|* * no, _ _ _|_ ch'io so- lo'in-|fiam- ma|i- o mi|con- su- *|
 A2 c2 c2 c2 | G2 G2 A2 B2 | c2 A4 c2- | c2 B2 c2 G2 | G2 G2 c3 B | A2 G2 F2 E2 | D2 G4 A2- | %45
w: mi, sem- pre la|vi- ta mi- a|pian- gen- do|_ me- ni, sem-|pre la vi- *|* ta mi- a|pian- gen- do|
 AG G4 F2 | G2 z G G2 G2 | c3 B A2 G2 | F2 E2 D2 G2- | G2 A3 G G2- |"^#" G2 F2 G4 | D8 |] %52
w: _ _ me- *|ni, sem- pre la|vi- * * ta|mi- a pian- gen-|* do _ me-||ni|
V:2
 c4 d2 d2 | c2 f2 e2 d2 | e6 dc | d2 e2 A2 e2- | ed/e/ f2 d2 e2 | A2 c3 A B2 | c2 A2 BcdB | %7
w: Au- ra gen-|til che mor- mo-|ran- * *|* * do vie-|* * * * ni, che|mor- mo- * ran-|do vie- * * * *|
 cA d3 c c2- | c2 B2 c2 e2 | f2 f2 e4- | e2 e2 e2 f2 | e2 fe dcBc | d2 A2 B2 c2 | A4 z2 G2 | %14
w: |* * ni, a|tem- prar- ne'il|_ ca- lor del|lon- * * * * * *|go gior- * *|no, et|
 G2 G2 A2 A2 | G2 G2 c2 G2 | A3 B cd e2 | d3 d ABcB | cd e2 d2 dd | efge fedc | d2 c4 B2 | %21
w: l'aer va- go ri-|mo- ven- do'in- tor-||no, li- e- ta- men- te|rin- * fre- * schi, li-|e- ta- men- te rin- * fre- schi'et|ras- se- re-|
 c2 G2 ABcG | A2 AA B2 c2- | cB/A/ B2 cBAG | A4 G4 | z4 z2 d2 | c2 A2 c2 d2 | B4 A2 d2 | %28
w: ni, li- e- ta- men- te|rin- fre- schi et ras-|* * * * se- * * *|re- ni,|co-|me con- tra'l tuo|sti- l'em- pia,|
 d2 d2 B2 B2 | e3 d ef g2- | gf/e/ f2 g2 d2 | d2 d2 g2 g2 | c2 f2 f2 e2 | d4 c3 B | cd e2 A2 c2- | %35
w: so- stie- ni, so-|stie- * * * *|* * * * ni, ch'io|sol non sen- ta'il|dol- ce tuo ri-|tor- * *|* * * no, ch'io|
 c2 B2 A2 G2 | A2 d4 c2 | d3 c B4 | A2 e2 e2 e2 | e3 d ef g2 | c2 f4 e2 | d4 e4- | e4 z2 A2 | %43
w: _ so- lo'in- fiam-|ma i- o|mi con- su-|mi, sem- pre la|vi- ta mi- * a|pian- gen- do|me- ni,|_ sem-|
 c2 c2 d2 GA | BcdB c2 A2 | B2 c2 A4 | B2 e2 e2 e2 | A3 B c2 c2 | d2 GA BcdB | c2 A2 B2 c2 | %50
w: pre la vi- ta _|mi- * * * a pian-|gen- do me-|ni, sem- pre la|vi- ta mi- a|pian- gen- * * * * *|* * * do|
 A4 B4 | B8 |] %52
w: me- *|ni.|
V:3
 z4 G4 | A2 A2 G2 G2 | c6 BA | B2 c3 BAG | A2 F2 G2 C2 | F6 G2 | A4 G4 | F2 D2 E2 F2 | G4 C4 | %9
w: Au-|ra gen- til che|mor- mo- *|ran- * * * *|* * * do|vie- *||ni, vie- * *|* ni,|
"^-natural" z2 F2 c2 c2 | A3 B c2 d2 | G2 F2 G4 | D4 G2 C2 | D4 G4 | z8 | z2 C2 C2 E2 | %16
w: a tem- prar-|ne'il _ _ ca-|lor del gior-||* no,||et l'a- er|
 F2 F2 C2 C2 | G4 F4- | F2 C2 G4 | C4 z2 D2 | FGAF G2 G2 | C2 C2 FG E2 | F2 D4 C2 | D4 C4 | %24
w: va- go, ri- mo-|ven do|_ ri- tor-|no, li-|e- ta- men- te rin- fre-|schi et ras- se- re-|ni, ras- se-|re- ni,|
 z4 z2 G2 | G2 G2 D2 D2 | F3 G A2 D2 | E2 E2 z2 D2 | D2 D2 G4 | C2 c4 B2 | A4 G4 | G6 E2 | %32
w: con-|tra'l tuo sti- l'em-|pia _ _ so-|stie- ni ch'io|sol non sen-|ta'il dol- ci|tuo ri-|tor- *|
 F3 E D2 C2 | G4 C2 F2- | F2 E2 D2 C2 | G4 C2 E2 | F2 D2 A4 | D4 E4 | z2 A2 A2 A2 | c3 B A2 G2 | %40
w: * * no, ch'io|so- lo'in- fiam-|* ma i- o|mi con- su-||* mi,|et che la|vi- ta mi- a|
 F3 E D2 C2 |"^#" G4 C2 c2 | c3 B AG F2- | F2 E2 D2 C2 | G3 G E2 ^F2 | G2 C2 D4 | G2 c2 c3 B | %47
w: pian- * gen- do|me- ni, et|che _ _ _ _|_ la vi- ta|mi- a pian- gen-|* do me-|ni, et che _|
 AG F4 E2 | D2 C2 G3 G | E2 ^F2 G2 C2 | D4 G4 | G8 |] %52
w: _ _ _ la|vi- ta mi- a|pian- gen- * do|me- *|ni.|

